svgs/sharp-solid/backpack.svg

<svg xmlns="http://www.w3.org/2000/svg" viewBox="0 0 448 512"><!--! Font Awesome Pro 6.6.0 by @fontawesome - https://fontawesome.com License - https://fontawesome.com/license (Commercial License) Copyright 2024 Fonticons, Inc. --><path d="M136 0l24 0L288 0l24 0 0 24 0 72 8 0c70.7 0 128 57.3 128 128l0 288-64 0 0-112 0-96 0-16-16 0L80 288l-16 0 0 16 0 96 0 112L0 512 0 224C0 153.3 57.3 96 128 96l8 0 0-72 0-24zM96 512l0-96 256 0 0 96L96 512zM264 48l-80 0 0 48 80 0 0-48zm40 128l-160 0-16 0 0 32 16 0 160 0 16 0 0-32-16 0zm48 208L96 384l0-64 256 0 0 64z"/></svg>

<svg xmlns="http://www.w3.org/2000/svg" viewBox="0 0 448 512"><!--! Font Awesome Pro 6.4.0 by @fontawesome - https://fontawesome.com License - https://fontawesome.com/license (Commercial License) Copyright 2023 Fonticons, Inc. --><path d="M136 0h24H288h24V24 96h8c70.7 0 128 57.3 128 128V512H384V400 304 288H368 80 64v16 96V512H0V224C0 153.3 57.3 96 128 96h8V24 0zM96 512V416H352v96H96zM264 48H184V96h80V48zm40 128H144 128v32h16H304h16V176H304zm48 208H96V320H352v64z"/></svg>
